X: 151099
T: O'Kane's
S: "Music from Ireland 1" (Bulmer & Sharpley)
R: hornpipe
M: 4/4
L: 1/8
K: G
(3DEF|(3GFG dG BG (3Bcd|gd (3d^cd B=cdB|(3cBc ac bgag|\
(3fga ef dcBc|
dg (3gfg dBGB|cA A2 CEAG|(3FED cA FDEF|AG (3FGA G2 :|
ef|(3gfg dg dBGB|AE E2 cBAG|(3FED FA d^c=cA|GBde fdcA|
BDGB ce e2|dedB GB (3dcB|cdfd cADF|AG (3FGA G2 :|
